dist/img/icon-reaction-s5.svg

<svg width="20" height="20" viewBox="0 0 20 20" fill="none" xmlns="http://www.w3.org/2000/svg">
<g clip-path="url(#clip0_4689_25625)">
<path d="M10 0C4.48598 0 0 4.48598 0 10C0 15.514 4.48598 20 10 20C15.514 20 20 15.514 20 10C20 4.48598 15.514 0 10 0ZM10 18.75C5.17523 18.75 1.25 14.8248 1.25 10C1.25 5.17523 5.17523 1.25 10 1.25C14.8248 1.25 18.75 5.17523 18.75 10C18.75 14.8248 14.8248 18.75 10 18.75ZM15.5291 13.7132C15.582 13.7765 15.6218 13.8496 15.6463 13.9284C15.6707 14.0072 15.6793 14.09 15.6716 14.1721C15.6639 14.2542 15.64 14.334 15.6013 14.4069C15.5627 14.4797 15.5099 14.5442 15.4462 14.5965C15.3825 14.6489 15.3091 14.6882 15.2301 14.712C15.1512 14.7359 15.0683 14.7438 14.9862 14.7355C14.9041 14.7272 14.8246 14.7027 14.752 14.6634C14.6795 14.6242 14.6154 14.571 14.5635 14.5069C14.0287 13.8552 13.356 13.3303 12.5939 12.9698C11.8317 12.6094 10.9992 12.4225 10.1562 12.4225C9.31311 12.4225 8.48056 12.6094 7.71845 12.9698C6.95634 13.3303 6.28364 13.8552 5.74879 14.5069C5.69677 14.5706 5.63269 14.6234 5.56022 14.6623C5.48775 14.7012 5.40832 14.7254 5.32648 14.7335C5.24464 14.7416 5.162 14.7335 5.08329 14.7097C5.00459 14.6858 4.93137 14.6466 4.86784 14.5944C4.8043 14.5422 4.75169 14.4779 4.71304 14.4053C4.67438 14.3327 4.65043 14.2532 4.64256 14.1714C4.63469 14.0895 4.64306 14.0069 4.66718 13.9283C4.6913 13.8496 4.7307 13.7765 4.78312 13.7132C5.43523 12.9188 6.25534 12.2789 7.18443 11.8396C8.11351 11.4003 9.12845 11.1724 10.1562 11.1724C11.1839 11.1724 12.1988 11.4003 13.1279 11.8396C14.057 12.2789 14.8771 12.9188 15.5292 13.7132H15.5291ZM15.8041 4.89832C15.887 5.04187 15.9094 5.21246 15.8665 5.37257C15.8236 5.53268 15.7189 5.66919 15.5754 5.75207L14.435 6.41043C14.5447 6.55157 14.623 6.71459 14.6644 6.8885C14.7058 7.06242 14.7095 7.24319 14.6752 7.41864C14.6409 7.5941 14.5693 7.76017 14.4654 7.90565C14.3615 8.05114 14.2277 8.17267 14.0728 8.26206C13.918 8.35146 13.7458 8.40663 13.5679 8.42387C13.3899 8.44111 13.2103 8.42002 13.0412 8.36202C12.8721 8.30401 12.7174 8.21044 12.5875 8.08761C12.4576 7.96477 12.3555 7.81553 12.2882 7.64992L12.2608 7.66578C12.1897 7.70682 12.1113 7.73346 12.0299 7.74417C11.9485 7.75488 11.8658 7.74946 11.7866 7.72822C11.7073 7.70697 11.633 7.67032 11.5678 7.62036C11.5027 7.57039 11.4481 7.50809 11.4071 7.43701C11.366 7.36593 11.3394 7.28746 11.3287 7.20609C11.318 7.12471 11.3234 7.04203 11.3446 6.96275C11.3659 6.88347 11.4025 6.80915 11.4525 6.74403C11.5024 6.67892 11.5647 6.62428 11.6358 6.58324L14.9504 4.66957C15.094 4.58673 15.2646 4.5643 15.4247 4.60722C15.5848 4.65014 15.7212 4.75489 15.8041 4.89844V4.89832ZM5.56496 6.41047L4.42465 5.75211C4.2811 5.66923 4.17634 5.53272 4.13344 5.3726C4.09054 5.21249 4.113 5.04189 4.19588 4.89834C4.27876 4.75479 4.41527 4.65004 4.57538 4.60713C4.7355 4.56423 4.90609 4.58669 5.04965 4.66957L8.36426 6.58328C8.43534 6.62432 8.49764 6.67896 8.54761 6.74407C8.59757 6.80919 8.63422 6.88351 8.65546 6.96279C8.67671 7.04207 8.68213 7.12475 8.67141 7.20613C8.6607 7.2875 8.63407 7.36597 8.59303 7.43705C8.55199 7.50813 8.49735 7.57043 8.43224 7.6204C8.36712 7.67036 8.2928 7.70701 8.21352 7.72826C8.13424 7.7495 8.05155 7.75492 7.97018 7.74421C7.88881 7.73349 7.81034 7.70686 7.73926 7.66582L7.71191 7.64996C7.64464 7.81572 7.54262 7.96513 7.41271 8.08811C7.28281 8.2111 7.12805 8.30481 6.95886 8.36292C6.78967 8.42103 6.60999 8.44219 6.43194 8.42497C6.25388 8.40776 6.08158 8.35257 5.92666 8.26312C5.77174 8.17368 5.63779 8.05206 5.53386 7.90647C5.42992 7.76087 5.3584 7.59469 5.32413 7.41911C5.28986 7.24354 5.29363 7.06266 5.33519 6.88866C5.37675 6.71467 5.45512 6.55161 5.56504 6.41047H5.56496Z" fill="#959EA8"/>
</g>
<defs>
<clipPath id="clip0_4689_25625">
<rect width="20" height="20" fill="white"/>
</clipPath>
</defs>
</svg>

<svg xmlns="http://www.w3.org/2000/svg" width="20" height="20" fill="none" viewBox="0 0 20 20"><g clip-path="url(#a)"><path fill="#959EA8" d="M10 0C4.486 0 0 4.486 0 10s4.486 10 10 10 10-4.486 10-10S15.514 0 10 0m0 18.75c-4.825 0-8.75-3.925-8.75-8.75S5.175 1.25 10 1.25s8.75 3.925 8.75 8.75-3.925 8.75-8.75 8.75m5.53-5.037a.625.625 0 1 1-.966.794 5.702 5.702 0 0 0-8.815 0 .625.625 0 1 1-.966-.794 6.95 6.95 0 0 1 10.746 0m.274-8.815a.625.625 0 0 1-.229.854l-1.14.658a1.251 1.251 0 1 1-2.147 1.24l-.027.016a.625.625 0 1 1-.625-1.083L14.95 4.67a.625.625 0 0 1 .854.228M5.565 6.41l-1.14-.658A.625.625 0 1 1 5.05 4.67l3.314 1.913a.625.625 0 0 1-.625 1.083l-.027-.016a1.251 1.251 0 1 1-2.147-1.24"/></g><defs><clipPath id="a"><path fill="#fff" d="M0 0h20v20H0z"/></clipPath></defs></svg>
